images/node-project-training/purchase-business.svg

<svg fill="none" height="36" viewBox="0 0 27 36" width="27" xmlns="http://www.w3.org/2000/svg"><path d="m17.5503 3.40875c-2.5707-.99-4.2582-3.40875-4.2582-3.40875s-1.6875 2.41875-4.25808 3.40875c-3.11063 1.20375-8.834066 1.23187-8.834066 1.23187s-1.071563 17.35878 1.746566 21.33278c3.4875 4.9135 11.34558 7.3182 11.34558 10.0266 0-2.7084 7.8582-5.1131 11.3457-10.0266 2.8125-3.9712 1.7465-21.33278 1.7465-21.33278s-5.7234-.02812-8.834-1.23187z" fill="#02a475"/></svg>

<svg width="27" height="36" viewBox="0 0 27 36" fill="none" xmlns="http://www.w3.org/2000/svg">
<path d="M17.5503 3.40875C14.9796 2.41875 13.2921 0 13.2921 0C13.2921 0 11.6046 2.41875 9.03402 3.40875C5.92339 4.6125 0.199954 4.64062 0.199954 4.64062C0.199954 4.64062 -0.871609 21.9994 1.94652 25.9734C5.43402 30.8869 13.2921 33.2916 13.2921 36C13.2921 33.2916 21.1503 30.8869 24.6378 25.9734C27.4503 22.0022 26.3843 4.64062 26.3843 4.64062C26.3843 4.64062 20.6609 4.6125 17.5503 3.40875Z" fill="#02A475"/>
</svg>
